X: 13146
T: First Month Of Spring, The
R: reel
M: 4/4
K: Dmajor
|:dB~B2 A2FA|~D2FA Adfe|dBBA BAFA|Beed egfe|
dBBA BAFB|~A3B defg|af (3gfe (3fed ef|dBAB ~e3f:|
af~f2 afef|af~f2 a2ab|af~f2 a2af|edfe dBA2|
af~f2 afef|af~f2 afea|fa~a2 fb~b2|bafe faef|

